Newaita-dark/actions/symbolic/call-stop-symbolic.svg

<svg height="16" viewBox="0 0 16 16" width="16" xmlns="http://www.w3.org/2000/svg"><g fill="#f44336"><path d="m15.15625 9.882812c0 .734376-.589844 1.324219-1.320312 1.324219h-1.984376c-.734374 0-1.324218-.589843-1.324218-1.324219v-.660156h4.628906zm0 0"/><path d="m5.234375 9.882812c0 .734376-.589844 1.324219-1.320313 1.324219h-1.988281c-.730469 0-1.320312-.589843-1.320312-1.324219v-.660156h4.628906zm0 0"/><path d="m15.136719 8.558594h-4.609375c0-1.984375-5.292969-1.984375-5.292969 0h-4.609375c-.019531-4.960938 14.53125-4.960938 14.511719 0zm0 0"/></g></svg>

<?xml version="1.0" encoding="UTF-8"?>
<svg xmlns="http://www.w3.org/2000/svg" xmlns:xlink="http://www.w3.org/1999/xlink" width="16px" height="16px" viewBox="0 0 16 16" version="1.1">
<g id="surface1">
<path style=" stroke:none;fill-rule:nonzero;fill:rgb(95.686275%,26.274511%,21.176471%);fill-opacity:1;" d="M 15.15625 9.882812 C 15.15625 10.617188 14.566406 11.207031 13.835938 11.207031 L 11.851562 11.207031 C 11.117188 11.207031 10.527344 10.617188 10.527344 9.882812 L 10.527344 9.222656 L 15.15625 9.222656 Z M 15.15625 9.882812 "/>
<path style=" stroke:none;fill-rule:nonzero;fill:rgb(95.686275%,26.274511%,21.176471%);fill-opacity:1;" d="M 5.234375 9.882812 C 5.234375 10.617188 4.644531 11.207031 3.914062 11.207031 L 1.925781 11.207031 C 1.195312 11.207031 0.605469 10.617188 0.605469 9.882812 L 0.605469 9.222656 L 5.234375 9.222656 Z M 5.234375 9.882812 "/>
<path style=" stroke:none;fill-rule:nonzero;fill:rgb(95.686275%,26.274511%,21.176471%);fill-opacity:1;" d="M 15.136719 8.558594 L 10.527344 8.558594 C 10.527344 6.574219 5.234375 6.574219 5.234375 8.558594 L 0.625 8.558594 C 0.605469 3.597656 15.15625 3.597656 15.136719 8.558594 Z M 15.136719 8.558594 "/>
</g>
</svg>
